X: 26
M:4/4
L:1/8
K:D
2dBcA BGAF||:(3GAB AF D2 D||:G|(3FED AD BDAD|(3FED AF E2 EG|
1(3FED AD BDAD|(3GAB AF D2 D:|
2dBcA BGAF|(3GAB AF D2 D||

